svgs/light/list-dropdown.svg

<svg xmlns="http://www.w3.org/2000/svg" viewBox="0 0 512 512"><!--! Font Awesome Pro 6.0.0-alpha3 by @fontawesome - https://fontawesome.com License - https://fontawesome.com/license (Commercial License) --><path d="M447.1 32h-384c-35.36 0-64 28.64-64 64v320c0 35.36 28.64 64 64 64h384c35.36 0 64-28.64 64-64V96C511.1 60.64 483.4 32 447.1 32zM480 416c0 17.62-14.38 32-32 32H64c-17.62 0-32-14.38-32-32V192h448V416zM480 160H32V96c0-17.62 14.38-32 32-32h384c17.62 0 32 14.38 32 32V160zM128 288h256c8.844 0 16-7.156 16-16S392.8 256 384 256H128C119.2 256 112 263.2 112 272S119.2 288 128 288zM128 384h256c8.844 0 16-7.156 16-16S392.8 352 384 352H128c-8.844 0-16 7.156-16 16S119.2 384 128 384zM405.1 86.7L384 104.3l-22-17.61c-6.89-5.516-16.94-4.359-22.5 2.5c-5.516 6.906-4.391 16.97 2.499 22.5l32 25.59C376.9 139.6 380.5 140.8 384 140.8s7.078-1.172 9.999-3.5l31.1-25.59c6.891-5.531 8.016-15.59 2.501-22.5C422.1 82.33 412.9 81.17 405.1 86.7z"/></svg>

<svg xmlns="http://www.w3.org/2000/svg" viewBox="0 0 512 512"><!-- Font Awesome Pro 6.0.0-alpha2 by @fontawesome - https://fontawesome.com License - https://fontawesome.com/license (Commercial License) --><path d="M448 32H64C28.641 32 0 60.641 0 96V416C0 451.359 28.641 480 64 480H448C483.359 480 512 451.359 512 416V96C512 60.641 483.359 32 448 32ZM480 416C480 433.625 465.625 448 448 448H64C46.375 448 32 433.625 32 416V192H480V416ZM480 160H32V96C32 78.375 46.375 64 64 64H448C465.625 64 480 78.375 480 96V160ZM128 288H384C392.844 288 400 280.844 400 272S392.844 256 384 256H128C119.156 256 112 263.156 112 272S119.156 288 128 288ZM128 384H384C392.844 384 400 376.844 400 368S392.844 352 384 352H128C119.156 352 112 359.156 112 368S119.156 384 128 384ZM405.999 86.703L384 104.312L361.999 86.703C355.109 81.187 345.062 82.344 339.5 89.203C333.984 96.109 335.109 106.172 341.999 111.703L373.999 137.297C376.922 139.625 380.469 140.797 384 140.797S391.078 139.625 393.999 137.297L425.999 111.703C432.891 106.172 434.016 96.109 428.5 89.203C422.953 82.328 412.922 81.172 405.999 86.703Z"/></svg>
